BG black

REPEAT 72 [
  FORWARD 200 
  BACK    200 red
  RIGHT    5
]

PENUP
FORWARD 50
PENDOWN
REPEAT 36 [
  CIRCLE 30 yellow
  RIGHT  90
]

PENUP
BACK    50 
RIGHT   90
FORWARD 150
LEFT    90
PENDOWN
REPEAT 10 [
  FORWARD 20
  CURVE 20 20 80 20 20 100 cyan
  RIGHT  15
]
