FORWARD 20
RIGHT 90
FORWARD 20
LEFT 90

FORWARD 20
RIGHT 90
FORWARD 20
LEFT 90

FORWARD 20
RIGHT 90
FORWARD 20
LEFT 90

FORWARD 20
RIGHT 90
FORWARD 20
LEFT 90

FORWARD 20
RIGHT 90
FORWARD 20
LEFT 90
FORWARD 20
BG white